icons/line/dashboard.svg

<svg width="24" height="24" viewBox="0 0 24 24" fill="none" xmlns="http://www.w3.org/2000/svg">
<path fill-rule="evenodd" clip-rule="evenodd" d="M5 9C3.89543 9 3 8.10457 3 7V4C3 2.89543 3.89543 2 5 2H9C10.1046 2 11 2.89543 11 4V7C11 8.10457 10.1046 9 9 9H5ZM5 7H9V4H5V7ZM5 22C3.89543 22 3 21.1046 3 20V12C3 10.8954 3.89543 10 5 10H9C10.1046 10 11 10.8954 11 12V20C11 21.1046 10.1046 22 9 22H5ZM5 20H9V12H5V20ZM13 20C13 21.1046 13.8954 22 15 22H19C20.1046 22 21 21.1046 21 20V18C21 16.8954 20.1046 16 19 16H15C13.8954 16 13 16.8954 13 18V20ZM19 20H15V18H19V20ZM15 14C13.8954 14 13 13.1046 13 12V4C13 2.89543 13.8954 2 15 2H19C20.1046 2 21 2.89543 21 4V12C21 13.1046 20.1046 14 19 14H15ZM15 12H19V4H15V12Z" fill="currentColor"/>
</svg>

<svg width="24" height="24" fill="none" xmlns="http://www.w3.org/2000/svg"><path fill-rule="evenodd" clip-rule="evenodd" d="M5 9a2 2 0 01-2-2V4a2 2 0 012-2h4a2 2 0 012 2v3a2 2 0 01-2 2H5zm0-2h4V4H5v3zm0 15a2 2 0 01-2-2v-8a2 2 0 012-2h4a2 2 0 012 2v8a2 2 0 01-2 2H5zm0-2h4v-8H5v8zm8 0a2 2 0 002 2h4a2 2 0 002-2v-2a2 2 0 00-2-2h-4a2 2 0 00-2 2v2zm6 0h-4v-2h4v2zm-4-6a2 2 0 01-2-2V4a2 2 0 012-2h4a2 2 0 012 2v8a2 2 0 01-2 2h-4zm0-2h4V4h-4v8z" fill="currentColor"/></svg>
